X: 580
T: The dancer's delight
C: anon.
O: Ireland
B: Francis O'Neill: "The Dance Music of Ireland" (1907) no. 580
R: Reel
Z: Transcribed by Frank Nordberg - http://www.musicaviva.com
F: http://www.musicaviva.com/abc/tunes/ireland/oneill-1001/oneill-1001-058
0.abc
M: C|
L: 1/8
K: A
e>A (3AAA (eA)ce|eaec BABc|e>A (3AAA (eA)ce|[1faec BAFE:|[2faec B2A2||Ace
g a2(ag)|
faec BAFE|Aceg a2(ae)|gbeg afec|Aceg a2(ae)|faec BAFE|Aceg a2(ge)|fefg ag
af|]
W:
W:
W: From Musica Viva - http://www.musicaviva.com
W: the Internet center for free sheet music downloads.


